X:209
T: VON DIR MUSS ICH SCHEIDEN
N: E0786A
O: Europa, Mitteleuropa, Deutschland, Hessen, Dillenburg; Taunus
R: Abschieds -, Wander - Lied
M: 2/4
L: 1/16
K: F
 | A2A2A2A2 | A2c2c4 |
B3AG2F2 | G4z4 |
F2A2B2c2 | d4d4 |
c3BA2G2 | F4z4

@@@ Tune index: 4522
